icons/tornado.svg

<svg width="24" height="24" viewBox="0 0 24 24" fill="none" xmlns="http://www.w3.org/2000/svg">
<path fill-rule="evenodd" clip-rule="evenodd" d="M2 4C2 3.44772 2.44772 3 3 3H21C21.5523 3 22 3.44772 22 4C22 4.55228 21.5523 5 21 5H3C2.44772 5 2 4.55228 2 4ZM4 8C4 7.44772 4.44772 7 5 7H19C19.5523 7 20 7.44772 20 8C20 8.55228 19.5523 9 19 9H5C4.44772 9 4 8.55228 4 8ZM8 12C8 11.4477 8.44772 11 9 11H21C21.5523 11 22 11.4477 22 12C22 12.5523 21.5523 13 21 13H9C8.44772 13 8 12.5523 8 12ZM10 16C10 15.4477 10.4477 15 11 15H17C17.5523 15 18 15.4477 18 16C18 16.5523 17.5523 17 17 17H11C10.4477 17 10 16.5523 10 16ZM8 20C8 19.4477 8.44772 19 9 19H13C13.5523 19 14 19.4477 14 20C14 20.5523 13.5523 21 13 21H9C8.44772 21 8 20.5523 8 20Z" fill="black"/>
</svg>

<svg
  width="24"
  height="24"
  viewBox="0 0 24 24"
  xmlns="http://www.w3.org/2000/svg"
>
  <path
    fill-rule="evenodd"
    clip-rule="evenodd"
    d="M2 4a1 1 0 0 1 1-1h18a1 1 0 1 1 0 2H3a1 1 0 0 1-1-1zm2 4a1 1 0 0 1 1-1h14a1 1 0 1 1 0 2H5a1 1 0 0 1-1-1zm4 4a1 1 0 0 1 1-1h12a1 1 0 1 1 0 2H9a1 1 0 0 1-1-1zm2 4a1 1 0 0 1 1-1h6a1 1 0 1 1 0 2h-6a1 1 0 0 1-1-1zm-2 4a1 1 0 0 1 1-1h4a1 1 0 1 1 0 2H9a1 1 0 0 1-1-1z"
  />
</svg>
